X:800
T:Chanson
C:John Malchair's Third Collection of Tunes
F:https://www.vwml.org/record/Malchair/3619/p80
F:www.vwml.org/topics/historic-dance-and-tune-books/Malchair
Z:Eric Conrad Mar 2020
M:2/4
L:1/16
K:Am
P:A
|: c2 | B>cA2 ^G3A | B>cA2 ^G3A | B>cA2 d3c | B4E2 :| \
|: B2 | c3e d>ec2 | B>cA2 d>ec2 | B4 E2B2 | c3e d>ec2 | \
B>cA2 d>ec2 | B>cA2 {c}B3^G | A4 A,2 :|


